public/twitter.svg

<svg width="48" height="48" viewBox="0 0 48 48" fill="none" xmlns="http://www.w3.org/2000/svg">
<circle cx="24" cy="23.9998" r="24" fill="#3B3C98"/>
<path d="M19.8193 33.0105C28.3103 33.0105 32.9536 25.976 32.9536 19.8761C32.9536 19.6763 32.9495 19.4774 32.9406 19.2795C33.8418 18.6278 34.6252 17.8146 35.2433 16.889C34.4162 17.2568 33.5259 17.5041 32.5923 17.6159C33.5453 17.0442 34.2771 16.1402 34.6221 15.0625C33.7302 15.5913 32.7424 15.9755 31.6909 16.183C30.8485 15.2857 29.6491 14.7246 28.3211 14.7246C25.772 14.7246 23.7046 16.7919 23.7046 19.3402C23.7046 19.7026 23.7452 20.0549 23.8243 20.3928C19.9877 20.1998 16.5854 18.363 14.3089 15.5697C13.9126 16.2518 13.6839 17.0444 13.6839 17.89C13.6839 19.4914 14.4989 20.9055 15.7381 21.7325C14.9808 21.7092 14.2694 21.5013 13.6475 21.1552C13.6468 21.1746 13.6468 21.1935 13.6468 21.2141C13.6468 23.4498 15.2379 25.3165 17.3505 25.7394C16.9625 25.845 16.5542 25.9018 16.1332 25.9018C15.8362 25.9018 15.5467 25.8726 15.2655 25.8186C15.8531 27.6527 17.5574 28.9874 19.5779 29.0249C17.9979 30.2632 16.0075 31.0009 13.8444 31.0009C13.4723 31.0009 13.1045 30.9796 12.7432 30.9369C14.7862 32.2464 17.2122 33.0106 19.8194 33.0106" fill="white"/>
</svg>

<svg xmlns="http://www.w3.org/2000/svg" width="48" height="48" fill="none"><circle cx="24" cy="24" r="24" fill="#3B3C98"/><path fill="#fff" d="M19.82 33.01c8.49 0 13.134-7.034 13.134-13.134 0-.2-.005-.399-.013-.597a9.397 9.397 0 0 0 2.302-2.39 9.208 9.208 0 0 1-2.65.727 4.633 4.633 0 0 0 2.03-2.553 9.258 9.258 0 0 1-2.932 1.12 4.617 4.617 0 0 0-7.867 4.21 13.106 13.106 0 0 1-9.515-4.823 4.605 4.605 0 0 0-.625 2.32c0 1.601.815 3.015 2.054 3.843a4.58 4.58 0 0 1-2.09-.578l-.001.06a4.617 4.617 0 0 0 3.704 4.524 4.63 4.63 0 0 1-2.085.08 4.621 4.621 0 0 0 4.312 3.206A9.262 9.262 0 0 1 13.844 31c-.372 0-.74-.021-1.1-.064a13.067 13.067 0 0 0 7.075 2.074"/></svg>
